X:1
T:O quam glorifica
T:O quam glorifica
T:Alexander Agricola 1445-1506 ed. P. Wing
T:Copyright © 2018 by CPDL. This edition can be fully distributed, duplicated, performed, and recorded.
T:Copyright © 2018 by CPDL. This edition can be fully distributed, duplicated, performed, and recorded.
T:Copyright © 2018 by CPDL. This edition can be fully distributed, duplicated, performed, and recorded.
C:Alexander Agricola
Z:Copyright © 2018 by CPDL. This edition can be fully distributed, duplicated, performed, and recorded.
%%score [ 1 2 3 ]
L:1/8
Q:1/2=80
M:2/2
K:A
V:1 treble nm="S." snm="S."
V:2 treble-8 nm="A." snm="A."
V:3 bass nm="B." snm="B."
V:1
 z8 | z8 | z8 | z8 | z8 | z8 | B8- | B8 | A8 | B6 c2 | d8 | d4 c4 | B6 AG | A4 B4 | c8 | B8 | %16
w: ||||||O||quam|glo- *||rí- *|fi- * *||ca||
 z4 B4 | B8- | B8 | A8- | A8 | A8 | B6 c2 | d4 d4- | d2 cB c4 | B4 c4- | c4 B4- | B4 ^A4 | B8 | %29
w: lu-|ce|||||co- *|* rú-|||||scas,|
 z8 | e8 | d8 | c4 d4- | d2 cB A4 | B4 c4- | c2 d2 e4 | c4 d4- | d2 c2 c4- | c4 B4 | c4 z2 c2- | %40
w: |Stir-|pis|Da- ví-|* * * di-|* cæ||ré- *|* * gi-||a pro-|
 c2 d2 c2 d2- | dc B4 ^A2 | B8 | z8 | z8 | z8 | z8 | z8 | z8 | e8 | e8 | f8 | e6 dc | %53
w: ||les.|||||||Sub-|lí-|mis|ré- * *|
 B2 c2 B2 e2- | e2 ^dc ^d4 | e8 | z4 e4- | e4 d4 | e4 f4- | f2 e2 d4 | c6 d2- | d2 cB A4 | %62
w: |* * * si-|dens|Vir-|* go|* Ma-||* ri-||
 B4 c2 d2- | dc c4 B2 | c8- | c8 | z8 | z8 | z4 z2 B2 | e4 d4 | d4 c4 | B4 z4 | z8 | z2 B2 e4 | %74
w: ||a,||||Su-|* pra|cæ- *|lí-|||
 d4 d4 | c4 B4 | A4 B2 c2- | cd e2 d2 c2- | cB B4 ^A2 | B8 |] %80
w: ge- nas||æ- the- ris||* * om- *|nes.|
V:2
 z8 | z8 | z8 | B8- | B8 | A8 | B3 c d2 e2- | ed B2 d2 e2 | f2 ed c4 | B8 | z4 f4- | f2 g2 a4 | %12
w: |||O||quam|glo- * * rí-||* * * fi-|ca|glo-||
 g4 e4 | f4 d2 e2- | edcB A3 G | B4 z4 | z8 | z8 | z8 | z4 c4- | c2 d2 c2 f2- | f2 ed c4 | B4 e4 | %23
w: * rí-|* fi- *||ca||||lu-||* * * ce|co- *|
 d2 B3 cde | f4- f2 e2 | d2 cB A4 | B8 | c8 | B4 e4- | e4 d4 | c8 | f8- | (f8 | f8) | d4 e4 | %35
w: rú- * * * *|||||scas, *||Stir-|pis|||Da- ví-|
 f4 g4 | e4 f4 | c8 | d8 | c4 f4- | f8 | d2 e2 c4 | B8 | z8 | z8 | z8 | e8 | e8 | f8 | e6 =g2- | %50
w: di- cæ|ré- *|gi-||a pro-|||les.||||Sub-|lí-|mis|* re-|
 gf a3 =gfe | d2 e4 ^d2 | e8- | e8 | f8 | e8 | d4 e4 | c4 B4 | z4 B4 | f8- | f8- | f8 | %62
w: |* si- *|dens||||Vir- *|go *|Ma-|ri-|||
 d2 e3 d f2- | fedc d4 | c8- | c8 | c4 z4 | z2 B2 e4 | d4 d4 | c4 B4 | z8 | z4 z2 B2 | e4 d4 | %73
w: ||||a,|Su- *|pra cæ-|* lí|||* ge-|
 d4 c4 | B4 f4- | f2 e2 d4 | c4 d2 e2 | c4 B2 A2 | B4 c4 | B8 |] %80
w: nas *|* æ-||* the- ris||om- *|nes.|
V:3
 B,,8- | B,,8 | A,,8 | B,,3 C, D,2 E,2- | E,D, B,,2 D,2 E,2 | F,2 E,D, C,4 | B,,6 E,2- | %7
w: O||quam|glo- * * rí-||* * * fi-|ca, quam|
 E,F,G,A, B,2 G,2 | F,8 | =G,6 A,2 | B,8- | B,4 A,4 | B,4 G,4 | F,4 =G,4 | E,4 F,4 | =G,6 F,E, | %16
w: ||glo- *|||rí- *|fi- *||ca, * *|
 D,2 E,4 D,C, | B,,3 A,, D,2 E,2- | E,2 D,2 E,2 =G,2 | F,4 z4 | z8 | z4 F,4 | G,4 E,4 | B,8- | %24
w: |||||lu-|ce co-|rú-|
 B,4 A,4 | B,4 F,4 | =G,8 | F,8 | G,6 E,2- | E,F,G,A, B,4- | B,2 ^A,G, ^A,4 | B,8 | A,4 B,4- | %33
w: ||||scas, co-|* * * * rú-||scas,|Stir- pis|
 B,2 A,G, F,4 | B,4 A,4- | A,2 G,F, E,4 | A,4 D,4 | A,8 | B,8 | A,4 F,3 G, | A,2 B,2 A,2 B,2- | %41
w: |Da- ví-||di- cæ|ré-|gi-|a pro- *||
 B,2 E,2 F,4 | B,,8 | E,8 | E,8 | F,8 | E,6 =G,2- | G,F, A,3 =G,F,E, | D,2 E,4 ^D,2 | E,4 z2 =C2- | %50
w: |les.|Sub-|lí-|mis|ré- *|* * si- * * *||dens, Sub-|
 CB,A,G, A,2 =C2 | B,2 A,2 B,4 | =C6 B,A, | =G,2 A,2 =G,F, E,2 | A,4 B,4 | =C6 B,A, | B,4 E,4 | %57
w: |lí- * mis|ré- * *||* si-|dens * *|Vir- go|
 z4 B,4 | C4 D4- | D2 CB, B,4 | A,4 A,2 B,2- | B,2 A,G, F,4 | G,4 A,2 D,2 | A,4 B,4 | %64
w: Ma-|* ri-|* * * a,|Ma- ri- *||||
 A,2 F,4 E,D, | C,4 z2 C,2 | E,4 D,4 | D,4 C,4 | B,,4 z4 | z8 | z2 B,,2 E,4 | D,4 D,4 | C,4 B,,4 | %73
w: |a, Su-|* pra|cæ- *|lí-|||ge- nas,||
 B,2 B,4 ^A,2 | B,8 | F,4 G,4 | A,2 F,2 B,2 A,2- | A,2 G,A, B,2 F,2 | %78
w: cæ- li- ge-|nas|æ- *|* * * the-|* * * * ris|
"_O how you sparkle with glorious light, royal offspring of the Davidic stock, \nO Virgin Mary, dwelling on high over all the citizens of heaven." =G,4 F,4 | %79
w: om- *|
 B,,8 |] %80
w: nes.|

